X: 6720
T: Chain
R: polka
M: 2/4
K: Dmajor
EC DE|[M:3/4] FA B2 Bc/B/|[M:2/4] AF DE|FE E2|
EC DE|[M:3/4] FA B2 Bc/B/|[M:2/4] AF EF|D2 D2:|
|:B2 B>c|dB BA|[M:3/4] FA B2 Bc/B/|[M:2/4] AF DE|FE E2|
dB BA|[M:3/4] FA B2 Bc/B/|[M:2/4] AF EF|D2 D2:|

